icons/microsoft-fill.svg

<svg viewBox="0 0 24 24" fill="currentColor" xmlns="http://www.w3.org/2000/svg">
    <path d="M11.501 3V11.5H3.00098V3H11.501ZM11.501 21H3.00098V12.5H11.501V21ZM12.501 3H21.001V11.5H12.501V3ZM21.001 12.5V21H12.501V12.5H21.001Z"/>
</svg>

<svg xmlns="http://www.w3.org/2000/svg" viewBox="0 0 24 24">
    <g>
        <path fill="none" d="M0 0h24v24H0z"/>
        <path d="M11.5 3v8.5H3V3h8.5zm0 18H3v-8.5h8.5V21zm1-18H21v8.5h-8.5V3zm8.5 9.5V21h-8.5v-8.5H21z"/>
    </g>
</svg>
